X:2356
T:Arrane ny Niee 
C:James Kelly, Ballachrink, Lonan 
C:Traditional
O:Isle of Man
Z:Kiaull Vannin 356
N:Coll. Mona Douglas 
M:3/4 
L:1/8 
Q:160 
K:G 
BB dB AG|BB dB AG|A2 AB AG|A2 AB AG|BB dB AG|BB dB AG| A2 AB AE|G6|
e2 d2 e2|B2 A2 G2|EA A2 AG|EA A4|e2 d2 e2|B2 A2 G2|DG G2 GF|DG G4|| 

